X: 288
T: A Night At The Fair
R: jig
M: 6/8
K: Gmajor
A|:B2A GED|EGF G2A|BGG DGG|ABA AGA|
B2A GED|EGF G2A|BeB dBA|1 AGF GcA:|2 AGF G2||
|:e|efg eaa|egg ged|BGG DGG|ABA ABd|
efg eaa|egg ged|BEB dBA|AGF G2:|

